X: 2
T: The Morning Star
R: reel
M: 4/4
L: 1/8
K: Dmaj
|:B2 BA BGEF|G2Bd efgd|B2BA BGEF|GBAF G2GA|
B2BA BGEF|GABd efgd|B2 BA BGEF|GBAG G4:|
|:Bdef g2 ef|f2df edBA|Bdef gfga|afdfe2ed|
Bdefg2eg|f2ef edBA|Bdd{}c deef|g{}faf e4:|

